images/61100.svg

<?xml version="1.0" encoding="UTF-8"?>
<svg xmlns="http://www.w3.org/2000/svg" xmlns:xlink="http://www.w3.org/1999/xlink" width="300pt" height="300pt" viewBox="0 0 300 300" version="1.1">
<defs>
<g>
<symbol overflow="visible" id="glyph0-0">
<path style="stroke:none;" d="M 0.796875 2.828125 L 0.796875 -11.28125 L 8.796875 -11.28125 L 8.796875 2.828125 Z M 1.703125 1.9375 L 7.90625 1.9375 L 7.90625 -10.390625 L 1.703125 -10.390625 Z M 1.703125 1.9375 "/>
</symbol>
<symbol overflow="visible" id="glyph0-1">
<path style="stroke:none;" d="M 1.578125 -11.671875 L 3.703125 -11.671875 L 8.875 -1.90625 L 8.875 -11.671875 L 10.40625 -11.671875 L 10.40625 0 L 8.28125 0 L 3.109375 -9.765625 L 3.109375 0 L 1.578125 0 Z M 1.578125 -11.671875 "/>
</symbol>
<symbol overflow="visible" id="glyph0-2">
<path style="stroke:none;" d="M 1.578125 -11.671875 L 3.15625 -11.671875 L 3.15625 -6.890625 L 8.890625 -6.890625 L 8.890625 -11.671875 L 10.46875 -11.671875 L 10.46875 0 L 8.890625 0 L 8.890625 -5.5625 L 3.15625 -5.5625 L 3.15625 0 L 1.578125 0 Z M 1.578125 -11.671875 "/>
</symbol>
<symbol overflow="visible" id="glyph0-3">
<path style="stroke:none;" d="M 6.3125 -10.59375 C 5.164062 -10.59375 4.253906 -10.164062 3.578125 -9.3125 C 2.898438 -8.457031 2.5625 -7.296875 2.5625 -5.828125 C 2.5625 -4.359375 2.898438 -3.195312 3.578125 -2.34375 C 4.253906 -1.488281 5.164062 -1.0625 6.3125 -1.0625 C 7.457031 -1.0625 8.363281 -1.488281 9.03125 -2.34375 C 9.695312 -3.195312 10.03125 -4.359375 10.03125 -5.828125 C 10.03125 -7.296875 9.695312 -8.457031 9.03125 -9.3125 C 8.363281 -10.164062 7.457031 -10.59375 6.3125 -10.59375 Z M 6.3125 -11.875 C 7.945312 -11.875 9.253906 -11.328125 10.234375 -10.234375 C 11.210938 -9.140625 11.703125 -7.671875 11.703125 -5.828125 C 11.703125 -3.984375 11.210938 -2.507812 10.234375 -1.40625 C 9.253906 -0.3125 7.945312 0.234375 6.3125 0.234375 C 4.664062 0.234375 3.351562 -0.3125 2.375 -1.40625 C 1.394531 -2.507812 0.90625 -3.984375 0.90625 -5.828125 C 0.90625 -7.671875 1.394531 -9.140625 2.375 -10.234375 C 3.351562 -11.328125 4.664062 -11.875 6.3125 -11.875 Z M 6.3125 -11.875 "/>
</symbol>
<symbol overflow="visible" id="glyph0-4">
<path style="stroke:none;" d="M 8.5625 -11.28125 L 8.5625 -9.75 C 7.96875 -10.03125 7.40625 -10.238281 6.875 -10.375 C 6.34375 -10.519531 5.828125 -10.59375 5.328125 -10.59375 C 4.472656 -10.59375 3.8125 -10.425781 3.34375 -10.09375 C 2.875 -9.757812 2.640625 -9.285156 2.640625 -8.671875 C 2.640625 -8.160156 2.796875 -7.769531 3.109375 -7.5 C 3.421875 -7.238281 4.007812 -7.03125 4.875 -6.875 L 5.828125 -6.671875 C 7.003906 -6.453125 7.867188 -6.054688 8.421875 -5.484375 C 8.984375 -4.921875 9.265625 -4.164062 9.265625 -3.21875 C 9.265625 -2.09375 8.882812 -1.234375 8.125 -0.640625 C 7.375 -0.0546875 6.265625 0.234375 4.796875 0.234375 C 4.242188 0.234375 3.65625 0.164062 3.03125 0.03125 C 2.414062 -0.09375 1.773438 -0.273438 1.109375 -0.515625 L 1.109375 -2.140625 C 1.742188 -1.785156 2.367188 -1.515625 2.984375 -1.328125 C 3.597656 -1.148438 4.203125 -1.0625 4.796875 -1.0625 C 5.703125 -1.0625 6.398438 -1.238281 6.890625 -1.59375 C 7.378906 -1.945312 7.625 -2.453125 7.625 -3.109375 C 7.625 -3.679688 7.445312 -4.128906 7.09375 -4.453125 C 6.738281 -4.773438 6.160156 -5.015625 5.359375 -5.171875 L 4.40625 -5.359375 C 3.226562 -5.597656 2.375 -5.96875 1.84375 -6.46875 C 1.320312 -6.96875 1.0625 -7.660156 1.0625 -8.546875 C 1.0625 -9.578125 1.421875 -10.390625 2.140625 -10.984375 C 2.867188 -11.578125 3.875 -11.875 5.15625 -11.875 C 5.695312 -11.875 6.25 -11.820312 6.8125 -11.71875 C 7.382812 -11.625 7.96875 -11.476562 8.5625 -11.28125 Z M 8.5625 -11.28125 "/>
</symbol>
<symbol overflow="visible" id="glyph1-0">
<path style="stroke:none;" d="M 0.640625 2.296875 L 0.640625 -9.171875 L 7.140625 -9.171875 L 7.140625 2.296875 Z M 1.375 1.578125 L 6.421875 1.578125 L 6.421875 -8.4375 L 1.375 -8.4375 Z M 1.375 1.578125 "/>
</symbol>
<symbol overflow="visible" id="glyph1-1">
<path style="stroke:none;" d="M 2.5 -1.078125 L 6.96875 -1.078125 L 6.96875 0 L 0.953125 0 L 0.953125 -1.078125 C 1.441406 -1.578125 2.101562 -2.25 2.9375 -3.09375 C 3.78125 -3.945312 4.3125 -4.5 4.53125 -4.75 C 4.9375 -5.207031 5.21875 -5.597656 5.375 -5.921875 C 5.539062 -6.242188 5.625 -6.554688 5.625 -6.859375 C 5.625 -7.367188 5.445312 -7.78125 5.09375 -8.09375 C 4.75 -8.40625 4.289062 -8.5625 3.71875 -8.5625 C 3.3125 -8.5625 2.882812 -8.492188 2.4375 -8.359375 C 2 -8.222656 1.523438 -8.007812 1.015625 -7.71875 L 1.015625 -9.015625 C 1.535156 -9.222656 2.019531 -9.378906 2.46875 -9.484375 C 2.914062 -9.597656 3.320312 -9.65625 3.6875 -9.65625 C 4.675781 -9.65625 5.460938 -9.40625 6.046875 -8.90625 C 6.628906 -8.414062 6.921875 -7.757812 6.921875 -6.9375 C 6.921875 -6.550781 6.847656 -6.179688 6.703125 -5.828125 C 6.554688 -5.484375 6.289062 -5.078125 5.90625 -4.609375 C 5.800781 -4.484375 5.460938 -4.125 4.890625 -3.53125 C 4.328125 -2.945312 3.53125 -2.128906 2.5 -1.078125 Z M 2.5 -1.078125 "/>
</symbol>
</g>
</defs>
<g id="surface42397">
<rect x="0" y="0" width="300" height="300" style="fill:rgb(100%,100%,100%);fill-opacity:1;stroke:none;"/>
<path style="fill:none;stroke-width:1.2;stroke-linecap:butt;stroke-linejoin:miter;stroke:rgb(0%,0%,0%);stroke-opacity:1;stroke-miterlimit:10;" d="M 48.800781 208.15625 L 56.277344 170.644531 "/>
<path style="fill:none;stroke-width:1.2;stroke-linecap:butt;stroke-linejoin:miter;stroke:rgb(0%,0%,0%);stroke-opacity:1;stroke-miterlimit:10;" d="M 58.375 206.164062 L 64.359375 176.15625 "/>
<path style="fill:none;stroke-width:1.2;stroke-linecap:butt;stroke-linejoin:miter;stroke:rgb(0%,0%,0%);stroke-opacity:1;stroke-miterlimit:10;" d="M 77.550781 233.386719 L 48.800781 208.15625 "/>
<path style="fill:none;stroke-width:1.2;stroke-linecap:butt;stroke-linejoin:miter;stroke:rgb(0%,0%,0%);stroke-opacity:1;stroke-miterlimit:10;" d="M 56.277344 170.644531 L 92.503906 158.363281 "/>
<path style="fill:none;stroke-width:1.2;stroke-linecap:butt;stroke-linejoin:miter;stroke:rgb(0%,0%,0%);stroke-opacity:1;stroke-miterlimit:10;" d="M 92.503906 158.363281 L 121.25 183.59375 "/>
<path style="fill:none;stroke-width:1.2;stroke-linecap:butt;stroke-linejoin:miter;stroke:rgb(0%,0%,0%);stroke-opacity:1;stroke-miterlimit:10;" d="M 89.441406 167.652344 L 112.441406 187.835938 "/>
<path style="fill:none;stroke-width:1.2;stroke-linecap:butt;stroke-linejoin:miter;stroke:rgb(0%,0%,0%);stroke-opacity:1;stroke-miterlimit:10;" d="M 121.25 183.59375 L 113.773438 221.105469 "/>
<path style="fill:none;stroke-width:1.2;stroke-linecap:butt;stroke-linejoin:miter;stroke:rgb(0%,0%,0%);stroke-opacity:1;stroke-miterlimit:10;" d="M 121.25 183.59375 L 157.476562 171.3125 "/>
<path style="fill:none;stroke-width:1.2;stroke-linecap:butt;stroke-linejoin:miter;stroke:rgb(0%,0%,0%);stroke-opacity:1;stroke-miterlimit:10;" d="M 113.773438 221.105469 L 77.550781 233.386719 "/>
<path style="fill:none;stroke-width:1.2;stroke-linecap:butt;stroke-linejoin:miter;stroke:rgb(0%,0%,0%);stroke-opacity:1;stroke-miterlimit:10;" d="M 107.261719 213.8125 L 78.28125 223.636719 "/>
<path style="fill:none;stroke-width:1.2;stroke-linecap:butt;stroke-linejoin:miter;stroke:rgb(0%,0%,0%);stroke-opacity:1;stroke-miterlimit:10;" d="M 157.476562 171.3125 L 186.226562 196.542969 "/>
<path style="fill:none;stroke-width:1.2;stroke-linecap:butt;stroke-linejoin:miter;stroke:rgb(0%,0%,0%);stroke-opacity:1;stroke-miterlimit:10;" d="M 186.226562 196.542969 L 204.335938 190.402344 "/>
<path style="fill:none;stroke-width:1.2;stroke-linecap:butt;stroke-linejoin:miter;stroke:rgb(0%,0%,100%);stroke-opacity:1;stroke-miterlimit:10;" d="M 204.335938 190.402344 L 222.449219 184.261719 "/>
<path style="fill:none;stroke-width:1.2;stroke-linecap:butt;stroke-linejoin:miter;stroke:rgb(0%,0%,100%);stroke-opacity:1;stroke-miterlimit:10;" d="M 222.449219 184.261719 L 251.199219 209.496094 "/>
<path style=" stroke:none;fill-rule:nonzero;fill:rgb(100%,100%,100%);fill-opacity:1;" d="M 210.449219 174.761719 L 234.449219 174.761719 L 234.449219 193.761719 L 210.449219 193.761719 Z M 210.449219 174.761719 "/>
<g style="fill:rgb(0%,0%,100%);fill-opacity:1;">
  <use xlink:href="#glyph0-1" x="210.449219" y="189.613281"/>
  <use xlink:href="#glyph0-2" x="222.417969" y="189.613281"/>
</g>
<path style=" stroke:none;fill-rule:nonzero;fill:rgb(100%,100%,100%);fill-opacity:1;" d="M 235.199219 197.996094 L 268.199219 197.996094 L 268.199219 220.996094 L 235.199219 220.996094 Z M 235.199219 197.996094 "/>
<g style="fill:rgb(0%,0%,100%);fill-opacity:1;">
  <use xlink:href="#glyph0-1" x="235.199219" y="212.847656"/>
  <use xlink:href="#glyph0-2" x="247.167969" y="212.847656"/>
</g>
<g style="fill:rgb(0%,0%,100%);fill-opacity:1;">
  <use xlink:href="#glyph1-1" x="259.199219" y="217.730469"/>
</g>
<path style="fill:none;stroke-width:1.2;stroke-linecap:butt;stroke-linejoin:miter;stroke:rgb(100%,0%,0%);stroke-opacity:1;stroke-miterlimit:10;" d="M 99.625 118.863281 L 116.1875 109.300781 "/>
<path style="fill:none;stroke-width:1.2;stroke-linecap:butt;stroke-linejoin:miter;stroke:rgb(80%,80%,0%);stroke-opacity:1;stroke-miterlimit:10;" d="M 116.1875 109.300781 L 132.75 99.738281 "/>
<path style=" stroke:none;fill-rule:nonzero;fill:rgb(100%,100%,100%);fill-opacity:1;" d="M 74.625 109.363281 L 99.625 109.363281 L 99.625 128.363281 L 74.625 128.363281 Z M 74.625 109.363281 "/>
<g style="fill:rgb(100%,0%,0%);fill-opacity:1;">
  <use xlink:href="#glyph0-2" x="74.625" y="124.214844"/>
  <use xlink:href="#glyph0-3" x="86.65625" y="124.214844"/>
</g>
<path style="fill:none;stroke-width:1.2;stroke-linecap:butt;stroke-linejoin:miter;stroke:rgb(80%,80%,0%);stroke-opacity:1;stroke-miterlimit:10;" d="M 128.855469 101.988281 L 138.417969 118.550781 "/>
<path style="fill:none;stroke-width:1.2;stroke-linecap:butt;stroke-linejoin:miter;stroke:rgb(100%,0%,0%);stroke-opacity:1;stroke-miterlimit:10;" d="M 138.417969 118.550781 L 147.980469 135.113281 "/>
<path style="fill:none;stroke-width:1.2;stroke-linecap:butt;stroke-linejoin:miter;stroke:rgb(80%,80%,0%);stroke-opacity:1;stroke-miterlimit:10;" d="M 136.648438 97.488281 L 146.210938 114.050781 "/>
<path style="fill:none;stroke-width:1.2;stroke-linecap:butt;stroke-linejoin:miter;stroke:rgb(100%,0%,0%);stroke-opacity:1;stroke-miterlimit:10;" d="M 146.210938 114.050781 L 155.773438 130.613281 "/>
<path style="fill:none;stroke-width:1.2;stroke-linecap:butt;stroke-linejoin:miter;stroke:rgb(80%,80%,0%);stroke-opacity:1;stroke-miterlimit:10;" d="M 136.648438 97.488281 L 127.085938 80.925781 "/>
<path style="fill:none;stroke-width:1.2;stroke-linecap:butt;stroke-linejoin:miter;stroke:rgb(100%,0%,0%);stroke-opacity:1;stroke-miterlimit:10;" d="M 127.085938 80.925781 L 117.523438 64.363281 "/>
<path style="fill:none;stroke-width:1.2;stroke-linecap:butt;stroke-linejoin:miter;stroke:rgb(80%,80%,0%);stroke-opacity:1;stroke-miterlimit:10;" d="M 128.855469 101.988281 L 119.292969 85.425781 "/>
<path style="fill:none;stroke-width:1.2;stroke-linecap:butt;stroke-linejoin:miter;stroke:rgb(100%,0%,0%);stroke-opacity:1;stroke-miterlimit:10;" d="M 119.292969 85.425781 L 109.730469 68.863281 "/>
<path style="fill:none;stroke-width:1.2;stroke-linecap:butt;stroke-linejoin:miter;stroke:rgb(80%,80%,0%);stroke-opacity:1;stroke-miterlimit:10;" d="M 132.75 99.738281 L 149.3125 90.175781 "/>
<path style="fill:none;stroke-width:1.2;stroke-linecap:butt;stroke-linejoin:miter;stroke:rgb(100%,0%,0%);stroke-opacity:1;stroke-miterlimit:10;" d="M 149.3125 90.175781 L 165.875 80.613281 "/>
<path style=" stroke:none;fill-rule:nonzero;fill:rgb(100%,100%,100%);fill-opacity:1;" d="M 127.75 90.238281 L 138.75 90.238281 L 138.75 109.238281 L 127.75 109.238281 Z M 127.75 90.238281 "/>
<g style="fill:rgb(80%,80%,0%);fill-opacity:1;">
  <use xlink:href="#glyph0-4" x="127.75" y="105.089844"/>
</g>
<path style=" stroke:none;fill-rule:nonzero;fill:rgb(100%,100%,100%);fill-opacity:1;" d="M 145.875 123.363281 L 158.875 123.363281 L 158.875 142.363281 L 145.875 142.363281 Z M 145.875 123.363281 "/>
<g style="fill:rgb(100%,0%,0%);fill-opacity:1;">
  <use xlink:href="#glyph0-3" x="145.875" y="138.214844"/>
</g>
<path style=" stroke:none;fill-rule:nonzero;fill:rgb(100%,100%,100%);fill-opacity:1;" d="M 100.625 57.113281 L 113.625 57.113281 L 113.625 76.113281 L 100.625 76.113281 Z M 100.625 57.113281 "/>
<g style="fill:rgb(100%,0%,0%);fill-opacity:1;">
  <use xlink:href="#glyph0-3" x="100.625" y="71.964844"/>
</g>
<path style=" stroke:none;fill-rule:nonzero;fill:rgb(100%,100%,100%);fill-opacity:1;" d="M 153.875 71.113281 L 178.875 71.113281 L 178.875 90.113281 L 153.875 90.113281 Z M 153.875 71.113281 "/>
<g style="fill:rgb(100%,0%,0%);fill-opacity:1;">
  <use xlink:href="#glyph0-3" x="153.875" y="85.964844"/>
  <use xlink:href="#glyph0-2" x="166.46875" y="85.964844"/>
</g>
</g>
</svg>

<svg xmlns="http://www.w3.org/2000/svg" xmlns:xlink="http://www.w3.org/1999/xlink" width="300pt" height="300pt" viewBox="0 0 300 300"><defs><symbol overflow="visible"><path d="M.797 2.828v-14.11h8V2.83zm.906-.89h6.203v-12.33H1.703zm0 0"/></symbol><symbol overflow="visible" id="a"><path d="M1.578-11.672h2.125l5.172 9.766v-9.766h1.53V0H8.282L3.11-9.766V0H1.577zm0 0"/></symbol><symbol overflow="visible" id="b"><path d="M1.578-11.672h1.578v4.78H8.89v-4.78h1.58V0H8.89v-5.563H3.157V0H1.578zm0 0"/></symbol><symbol overflow="visible" id="d"><path d="M6.313-10.594c-1.15 0-2.06.43-2.735 1.28-.68.857-1.015 2.017-1.015 3.486 0 1.47.335 2.633 1.015 3.484.676.856 1.586 1.28 2.735 1.28 1.144.002 2.05-.424 2.718-1.28.665-.85 1-2.015 1-3.484 0-1.47-.335-2.63-1-3.484-.667-.852-1.573-1.282-2.717-1.282zm0-1.28c1.632 0 2.94.546 3.92 1.64.978 1.093 1.47 2.562 1.47 4.406 0 1.844-.492 3.32-1.47 4.422-.98 1.093-2.288 1.64-3.92 1.64-1.65 0-2.96-.546-3.938-1.64-.98-1.102-1.47-2.578-1.47-4.422 0-1.844.49-3.313 1.47-4.406.977-1.094 2.29-1.64 3.938-1.64zm0 0"/></symbol><symbol overflow="visible" id="e"><path d="M8.563-11.28v1.53c-.594-.28-1.157-.488-1.688-.625-.53-.145-1.047-.22-1.547-.22-.855 0-1.516.17-1.984.5-.47.337-.703.81-.703 1.423 0 .512.157.902.47 1.172.312.262.898.47 1.765.625l.953.203c1.176.22 2.04.617 2.594 1.188.562.562.844 1.32.844 2.265 0 1.126-.383 1.986-1.14 2.58-.75.585-1.86.874-3.33.874-.554 0-1.14-.07-1.765-.203-.616-.124-1.257-.303-1.92-.546V-2.14c.632.355 1.257.624 1.874.812.614.18 1.22.266 1.813.266.906 0 1.6-.176 2.094-.532.49-.35.735-.86.735-1.515 0-.57-.18-1.02-.53-1.343-.357-.32-.935-.563-1.736-.72l-.954-.186c-1.18-.238-2.03-.61-2.562-1.11-.524-.5-.782-1.19-.782-2.077 0-1.03.36-1.844 1.08-2.437.725-.594 1.733-.89 3.014-.89.54 0 1.094.054 1.657.155.57.095 1.156.243 1.75.44zm0 0"/></symbol><symbol overflow="visible"><path d="M.64 2.297v-11.47h6.5v11.47zm.735-.72h5.047V-8.436H1.375zm0 0"/></symbol><symbol overflow="visible" id="c"><path d="M2.5-1.078h4.47V0H.952v-1.078c.488-.5 1.15-1.172 1.985-2.016C3.78-3.944 4.312-4.5 4.53-4.75c.407-.457.69-.848.845-1.172.164-.32.25-.633.25-.937 0-.507-.18-.92-.53-1.234-.345-.312-.806-.47-1.376-.47-.408.002-.837.072-1.283.205-.437.137-.914.352-1.42.64v-1.296c.518-.207 1.003-.363 1.452-.468.444-.114.85-.172 1.217-.172.99 0 1.774.25 2.36.75.582.492.875 1.148.875 1.97 0 .385-.074.756-.22 1.108-.147.344-.413.75-.796 1.22-.105.124-.445.483-1.015 1.077-.562.585-1.36 1.4-2.39 2.452zm0 0"/></symbol></defs><g><path fill="#fff" d="M0 0h300v300H0z"/><path d="M48.8 208.156l7.477-37.51M58.375 206.164l5.984-30.008M77.55 233.387l-28.75-25.23M56.277 170.645l36.227-12.282M92.504 158.363l28.746 25.23M89.44 167.652l23 20.184M121.25 183.594l-7.477 37.51M121.25 183.594l36.227-12.28M113.773 221.105L77.55 233.387M107.262 213.813l-28.98 9.824M157.477 171.313l28.75 25.23M186.227 196.543l18.11-6.14" stroke-width="1.2" stroke="#000" stroke-miterlimit="10" fill="none"/><path d="M204.336 190.402l18.113-6.14M222.45 184.262l28.75 25.234" stroke-width="1.2" stroke="#00f" stroke-miterlimit="10" fill="none"/><path d="M210.45 174.762h24v19h-24zm0 0" fill="#fff"/><g fill="#00f"><use xlink:href="#a" x="210.449" y="189.613"/><use xlink:href="#b" x="222.418" y="189.613"/></g><path d="M235.2 197.996h33v23h-33zm0 0" fill="#fff"/><g fill="#00f"><use xlink:href="#a" x="235.199" y="212.848"/><use xlink:href="#b" x="247.168" y="212.848"/></g><use xlink:href="#c" x="259.199" y="217.73" fill="#00f"/><path d="M99.625 118.863l16.563-9.562" stroke-width="1.2" stroke="#f00" stroke-miterlimit="10" fill="none"/><path d="M116.188 109.3l16.562-9.562" stroke-width="1.2" stroke="#cc0" stroke-miterlimit="10" fill="none"/><path d="M74.625 109.363h25v19h-25zm0 0" fill="#fff"/><g fill="#f00"><use xlink:href="#b" x="74.625" y="124.215"/><use xlink:href="#d" x="86.656" y="124.215"/></g><path d="M128.855 101.988l9.563 16.563" stroke-width="1.2" stroke="#cc0" stroke-miterlimit="10" fill="none"/><path d="M138.418 118.55l9.562 16.563" stroke-width="1.2" stroke="#f00" stroke-miterlimit="10" fill="none"/><path d="M136.648 97.488l9.563 16.563" stroke-width="1.2" stroke="#cc0" stroke-miterlimit="10" fill="none"/><path d="M146.21 114.05l9.563 16.563" stroke-width="1.2" stroke="#f00" stroke-miterlimit="10" fill="none"/><path d="M136.648 97.488l-9.562-16.562" stroke-width="1.2" stroke="#cc0" stroke-miterlimit="10" fill="none"/><path d="M127.086 80.926l-9.563-16.563" stroke-width="1.2" stroke="#f00" stroke-miterlimit="10" fill="none"/><path d="M128.855 101.988l-9.562-16.562" stroke-width="1.2" stroke="#cc0" stroke-miterlimit="10" fill="none"/><path d="M119.293 85.426l-9.563-16.563" stroke-width="1.2" stroke="#f00" stroke-miterlimit="10" fill="none"/><path d="M132.75 99.738l16.563-9.562" stroke-width="1.2" stroke="#cc0" stroke-miterlimit="10" fill="none"/><path d="M149.313 90.176l16.562-9.563" stroke-width="1.2" stroke="#f00" stroke-miterlimit="10" fill="none"/><path d="M127.75 90.238h11v19h-11zm0 0" fill="#fff"/><use xlink:href="#e" x="127.75" y="105.09" fill="#cc0"/><path d="M145.875 123.363h13v19h-13zm0 0" fill="#fff"/><use xlink:href="#d" x="145.875" y="138.215" fill="#f00"/><path d="M100.625 57.113h13v19h-13zm0 0" fill="#fff"/><use xlink:href="#d" x="100.625" y="71.965" fill="#f00"/><path d="M153.875 71.113h25v19h-25zm0 0" fill="#fff"/><g fill="#f00"><use xlink:href="#d" x="153.875" y="85.965"/><use xlink:href="#b" x="166.469" y="85.965"/></g></g></svg>
